X:1
T:Way Up the Ucletaw
M:6/8
L:1/4
K:D
 A,/2| D D/2 D E/2| F/2 A2 A/2| E E/2 F E/2| D3/2- D B/2| B/2 B B B/2|\
 A3/2 F F/2| E E/2 ^G G/2| A3/2- A A/4A/4| B B/2 B B/2| A F/2- F3/2|\
 G G/2 B B/2| A3/2- A A/2| D D/2 D D/2| F A- A/2F/2| E G/2 F E/2| D3/2- D||\
